svg/fluentui-system-icons/ic_fluent_desktop_sync_16_filled.svg

<svg width="16" height="16" viewBox="0 0 16 16" fill="none" xmlns="http://www.w3.org/2000/svg">
<path d="M14.001 9.74203C13.0499 10.5279 11.8301 11 10.5 11C7.46243 11 5 8.53757 5 5.5C5 4.17037 5.47182 2.95094 6.25716 2H3.50098C2.67255 2 2.00098 2.67157 2.00098 3.5V10.4971C2.00098 11.3256 2.67255 11.9971 3.50098 11.9971H6.00012V13H4.49573C4.21959 13 3.99573 13.2239 3.99573 13.5C3.99573 13.7761 4.21959 14 4.49573 14H11.5001C11.7763 14 12.0001 13.7761 12.0001 13.5C12.0001 13.2239 11.7763 13 11.5001 13H10.0001V11.9971H12.501C13.3294 11.9971 14.001 11.3256 14.001 10.4971V9.74203ZM9.00012 13H7.00012V11.9971H9.00012V13ZM10.5 10C8.01472 10 6 7.98528 6 5.5C6 3.01472 8.01472 1 10.5 1C12.9853 1 15 3.01472 15 5.5C15 7.98528 12.9853 10 10.5 10ZM12 3V3.15195C11.9095 3.0997 11.8162 3.05211 11.7203 3.00944C11.3524 2.84558 10.9552 2.75751 10.5524 2.75046C10.1497 2.74341 9.74967 2.81754 9.3762 2.96842C9.00273 3.11931 8.66346 3.34386 8.37864 3.62868C8.18338 3.82394 8.18338 4.14052 8.37864 4.33579C8.5739 4.53105 8.89048 4.53105 9.08575 4.33579C9.27563 4.1459 9.5018 3.99621 9.75079 3.89562C9.99977 3.79503 10.2665 3.74561 10.535 3.75031C10.8034 3.755 11.0682 3.81372 11.3135 3.92296C11.3663 3.94644 11.4179 3.97215 11.4682 4H11C10.7239 4 10.5 4.22386 10.5 4.5C10.5 4.77614 10.7239 5 11 5H12.5C12.7761 5 13 4.77614 13 4.5V3C13 2.72386 12.7761 2.5 12.5 2.5C12.2239 2.5 12 2.72386 12 3ZM10.4476 8.24954C10.8503 8.25659 11.2503 8.18246 11.6238 8.03158C11.9973 7.88069 12.3365 7.65614 12.6214 7.37132C12.8166 7.17606 12.8166 6.85948 12.6214 6.66421C12.4261 6.46895 12.1095 6.46895 11.9143 6.66421C11.7244 6.8541 11.4982 7.00379 11.2492 7.10438C11.0002 7.20497 10.7335 7.25439 10.465 7.24969C10.1966 7.245 9.93176 7.18628 9.68645 7.07704C9.63372 7.05356 9.58213 7.02785 9.53179 7H10C10.2761 7 10.5 6.77614 10.5 6.5C10.5 6.22386 10.2761 6 10 6H8.5C8.22386 6 8 6.22386 8 6.5V8C8 8.27614 8.22386 8.5 8.5 8.5C8.77614 8.5 9 8.27614 9 8V7.84805C9.09049 7.9003 9.18383 7.94789 9.27966 7.99056C9.64762 8.15442 10.0448 8.24249 10.4476 8.24954Z" fill="#212121"/>
</svg>

<svg xmlns="http://www.w3.org/2000/svg" width="16" height="16"><path d="M14.001 9.742A5.5 5.5 0 0 1 6.257 2H3.501a1.5 1.5 0 0 0-1.5 1.5v6.997a1.5 1.5 0 0 0 1.5 1.5h2.5V13H4.495a.5.5 0 0 0 0 1H11.5a.5.5 0 1 0 0-1H10v-1.003h2.501a1.5 1.5 0 0 0 1.5-1.5v-.755Zm-5 3.258H7v-1.003h2V13Zm1.499-3a4.5 4.5 0 1 1 0-9 4.5 4.5 0 0 1 0 9ZM12 3v.152a2.992 2.992 0 0 0-1.448-.402 3 3 0 0 0-2.173.879.5.5 0 0 0 .707.707A2 2 0 0 1 11.468 4H11a.5.5 0 0 0 0 1h1.5a.5.5 0 0 0 .5-.5V3a.5.5 0 0 0-1 0Zm-1.552 5.25a3 3 0 0 0 2.173-.879.5.5 0 0 0-.707-.707A2 2 0 0 1 9.532 7H10a.5.5 0 0 0 0-1H8.5a.5.5 0 0 0-.5.5V8a.5.5 0 0 0 1 0v-.152a2.998 2.998 0 0 0 1.448.402Z"/></svg>
